app/images/wallet-money.svg

<svg width="80" height="90" viewBox="0 0 80 90" fill="none" xmlns="http://www.w3.org/2000/svg">
<path d="M69.9 59.9255C69.1 69.8758 62.6667 76.3975 53.3334 76.3975H23.3334C14.1334 76.3975 6.66669 68.0497 6.66669 57.764V31.677C6.66669 21.5404 12.1334 14.4596 20.6334 13.2671C21.5 13.118 22.4 13.0435 23.3334 13.0435H53.3334C54.2 13.0435 55.0334 13.0808 55.8334 13.2298C63.8 14.2733 69.2 20.4969 69.9 29.5155C70 30.5963 69.2 31.4907 68.2334 31.4907H63.0667C59.8667 31.4907 56.9 32.8696 54.7667 35.3292C52.2334 38.087 50.9667 41.9627 51.2667 45.8385C51.8 52.6211 57.1334 57.9503 63.4667 57.9503H68.2334C69.2 57.9503 70 58.8447 69.9 59.9255Z" fill="#292D32"/>
<path d="M73.3333 40.882V48.559C73.3333 50.6087 71.8666 52.2857 70 52.3603H63.4666C59.8666 52.3603 56.5666 49.4162 56.2666 45.3913C56.0666 43.0435 56.8666 40.8447 58.2666 39.3168C59.5 37.9006 61.2 37.0807 63.0666 37.0807H70C71.8666 37.1553 73.3333 38.8323 73.3333 40.882Z" fill="#292D32"/>
</svg>

<svg xmlns="http://www.w3.org/2000/svg" width="80" height="90" fill="none"><path fill="#292D32" d="M69.9 59.925c-.8 9.95-7.233 16.472-16.567 16.472h-30c-9.2 0-16.666-8.347-16.666-18.633V31.677c0-10.137 5.466-17.217 13.966-18.41.867-.149 1.767-.223 2.7-.223h30c.867 0 1.7.037 2.5.186C63.8 14.273 69.2 20.497 69.9 29.515c.1 1.081-.7 1.976-1.667 1.976h-5.166c-3.2 0-6.167 1.379-8.3 3.838-2.534 2.758-3.8 6.634-3.5 10.51.533 6.782 5.866 12.111 12.2 12.111h4.766c.967 0 1.767.895 1.667 1.975Z"/><path fill="#292D32" d="M73.333 40.882v7.677c0 2.05-1.466 3.727-3.333 3.801h-6.533c-3.6 0-6.9-2.944-7.2-6.969-.2-2.347.6-4.546 2-6.074 1.233-1.416 2.933-2.236 4.8-2.236H70c1.867.074 3.333 1.751 3.333 3.801Z"/></svg>
